assets/1. Faces/Sleeping face/Color/sleeping_face_color.svg

<svg width="100%" height="100%" viewBox="0 0 32 32" fill="none" xmlns="http://www.w3.org/2000/svg">
<path d="M15.9989 29.9978C25.3333 29.9978 29.9978 23.7303 29.9978 15.9989C29.9978 8.26751 25.3333 2 15.9989 2C6.66443 2 2 8.26751 2 15.9989C2 23.7303 6.66443 29.9978 15.9989 29.9978Z" fill="url(#paint0_radial_31_89)"/>
<path d="M15.9989 29.9978C25.3333 29.9978 29.9978 23.7303 29.9978 15.9989C29.9978 8.26751 25.3333 2 15.9989 2C6.66443 2 2 8.26751 2 15.9989C2 23.7303 6.66443 29.9978 15.9989 29.9978Z" fill="url(#paint1_radial_31_89)"/>
<path d="M15.9989 29.9978C25.3333 29.9978 29.9978 23.7303 29.9978 15.9989C29.9978 8.26751 25.3333 2 15.9989 2C6.66443 2 2 8.26751 2 15.9989C2 23.7303 6.66443 29.9978 15.9989 29.9978Z" fill="url(#paint2_radial_31_89)"/>
<path d="M15.9989 29.9978C25.3333 29.9978 29.9978 23.7303 29.9978 15.9989C29.9978 8.26751 25.3333 2 15.9989 2C6.66443 2 2 8.26751 2 15.9989C2 23.7303 6.66443 29.9978 15.9989 29.9978Z" fill="url(#paint3_radial_31_89)" fill-opacity="0.6"/>
<path d="M15.9989 29.9978C25.3333 29.9978 29.9978 23.7303 29.9978 15.9989C29.9978 8.26751 25.3333 2 15.9989 2C6.66443 2 2 8.26751 2 15.9989C2 23.7303 6.66443 29.9978 15.9989 29.9978Z" fill="url(#paint4_radial_31_89)"/>
<path d="M15.9989 29.9978C25.3333 29.9978 29.9978 23.7303 29.9978 15.9989C29.9978 8.26751 25.3333 2 15.9989 2C6.66443 2 2 8.26751 2 15.9989C2 23.7303 6.66443 29.9978 15.9989 29.9978Z" fill="url(#paint5_radial_31_89)"/>
<path d="M15.9989 29.9978C25.3333 29.9978 29.9978 23.7303 29.9978 15.9989C29.9978 8.26751 25.3333 2 15.9989 2C6.66443 2 2 8.26751 2 15.9989C2 23.7303 6.66443 29.9978 15.9989 29.9978Z" fill="url(#paint6_radial_31_89)"/>
<path d="M15.9989 29.9978C25.3333 29.9978 29.9978 23.7303 29.9978 15.9989C29.9978 8.26751 25.3333 2 15.9989 2C6.66443 2 2 8.26751 2 15.9989C2 23.7303 6.66443 29.9978 15.9989 29.9978Z" fill="url(#paint7_radial_31_89)"/>
<path d="M7 17C7 17 8 18 10 18C12 18 13 17 13 17" stroke="url(#paint8_linear_31_89)" stroke-width="2" stroke-linecap="round" stroke-linejoin="round"/>
<path d="M19 17C19 17 20 18 22 18C24 18 25 17 25 17" stroke="url(#paint9_linear_31_89)" stroke-width="2" stroke-linecap="round" stroke-linejoin="round"/>
<rect x="14" y="22" width="4" height="4" rx="2" fill="url(#paint10_radial_31_89)"/>
<rect x="8" width="20" height="20" rx="10" fill="url(#paint11_radial_31_89)"/>
<path fill-rule="evenodd" clip-rule="evenodd" d="M28.78 2.37425C29.0244 2.67888 29.0691 3.09789 28.8944 3.44719L26.8668 7.50251L28.7575 7.02984C29.2933 6.89589 29.8362 7.22165 29.9701 7.75744C30.1041 8.29324 29.7783 8.83617 29.2425 8.97012L25.2425 9.97012C24.8637 10.0648 24.4643 9.93034 24.22 9.62571C23.9756 9.32108 23.9309 8.90207 24.1056 8.55276L26.1332 4.49745L24.2425 4.97012C23.7067 5.10407 23.1638 4.77831 23.0298 4.24251C22.8959 3.70672 23.2217 3.16378 23.7575 3.02984L27.7575 2.02984C28.1363 1.93512 28.5357 2.06962 28.78 2.37425Z" fill="url(#paint12_linear_31_89)"/>
<path fill-rule="evenodd" clip-rule="evenodd" d="M28.78 2.37425C29.0244 2.67888 29.0691 3.09789 28.8944 3.44719L26.8668 7.50251L28.7575 7.02984C29.2933 6.89589 29.8362 7.22165 29.9701 7.75744C30.1041 8.29324 29.7783 8.83617 29.2425 8.97012L25.2425 9.97012C24.8637 10.0648 24.4643 9.93034 24.22 9.62571C23.9756 9.32108 23.9309 8.90207 24.1056 8.55276L26.1332 4.49745L24.2425 4.97012C23.7067 5.10407 23.1638 4.77831 23.0298 4.24251C22.8959 3.70672 23.2217 3.16378 23.7575 3.02984L27.7575 2.02984C28.1363 1.93512 28.5357 2.06962 28.78 2.37425Z" fill="url(#paint13_radial_31_89)"/>
<path fill-rule="evenodd" clip-rule="evenodd" d="M26.0766 2.45006L27.7575 2.02984C28.1363 1.93512 28.5357 2.06962 28.78 2.37425C29.0244 2.67888 29.0691 3.09789 28.8944 3.44719L28.1198 4.99647C28.0802 4.99881 28.0402 5 28 5C26.8954 5 26 4.10457 26 3C26 2.80927 26.0267 2.62478 26.0766 2.45006Z" fill="url(#paint14_radial_31_89)"/>
<path fill-rule="evenodd" clip-rule="evenodd" d="M19 6.5C19 6.22386 19.2239 6 19.5 6H22.5C22.6894 6 22.8625 6.107 22.9472 6.27639C23.0319 6.44579 23.0136 6.64849 22.9 6.8L20.5 10H22.5C22.7761 10 23 10.2239 23 10.5C23 10.7761 22.7761 11 22.5 11H19.5C19.3106 11 19.1375 10.893 19.0528 10.7236C18.9681 10.5542 18.9864 10.3515 19.1 10.2L21.5 7H19.5C19.2239 7 19 6.77614 19 6.5Z" fill="#00A6ED"/>
<path fill-rule="evenodd" clip-rule="evenodd" d="M14.0257 8.3419C14.113 8.07993 14.3962 7.93835 14.6581 8.02567L17.6581 9.02567C17.8452 9.08803 17.9781 9.25451 17.9976 9.45074C18.017 9.64698 17.9193 9.8363 17.7481 9.93414L15.219 11.3793L17.1581 12.0257C17.4201 12.113 17.5617 12.3962 17.4744 12.6581C17.387 12.9201 17.1039 13.0617 16.8419 12.9744L13.8419 11.9744C13.6548 11.912 13.5219 11.7455 13.5024 11.5493C13.483 11.3531 13.5807 11.1637 13.7519 11.0659L16.281 9.62072L14.3419 8.97436C14.0799 8.88703 13.9383 8.60387 14.0257 8.3419Z" fill="#00A6ED"/>
<defs>
<radialGradient id="paint0_radial_31_89" cx="0" cy="0" r="1" gradientUnits="userSpaceOnUse" gradientTransform="translate(25.5 9) rotate(132.839) scale(37.5033)">
<stop stop-color="#FFF478"/>
<stop offset="0.474827" stop-color="#FFB02E"/>
<stop offset="1" stop-color="#F70A8D"/>
</radialGradient>
<radialGradient id="paint1_radial_31_89" cx="0" cy="0" r="1" gradientUnits="userSpaceOnUse" gradientTransform="translate(25.5 9) rotate(131.878) scale(38.9487)">
<stop stop-color="#FFF478"/>
<stop offset="0.474827" stop-color="#FFB02E"/>
<stop offset="1" stop-color="#F70A8D"/>
</radialGradient>
<radialGradient id="paint2_radial_31_89" cx="0" cy="0" r="1" gradientUnits="userSpaceOnUse" gradientTransform="translate(16 12.5) rotate(101.31) scale(17.8466 22.8581)">
<stop offset="0.787821" stop-color="#F59639" stop-opacity="0"/>
<stop offset="0.972509" stop-color="#FF7DCE"/>
</radialGradient>
<radialGradient id="paint3_radial_31_89" cx="0" cy="0" r="1" gradientUnits="userSpaceOnUse" gradientTransform="translate(18 14) rotate(135) scale(41.0122)">
<stop offset="0.314853" stop-opacity="0"/>
<stop offset="1"/>
</radialGradient>
<radialGradient id="paint4_radial_31_89" cx="0" cy="0" r="1" gradientUnits="userSpaceOnUse" gradientTransform="translate(16 17) rotate(77.692) scale(28.1469)">
<stop offset="0.507903" stop-color="#7D6133" stop-opacity="0"/>
<stop offset="1" stop-color="#715B32"/>
</radialGradient>
<radialGradient id="paint5_radial_31_89" cx="0" cy="0" r="1" gradientUnits="userSpaceOnUse" gradientTransform="translate(16.5 16.5) rotate(55.7131) scale(13.3135 9.65032)">
<stop stop-color="#FFB849"/>
<stop offset="1" stop-color="#FFB847" stop-opacity="0"/>
</radialGradient>
<radialGradient id="paint6_radial_31_89" cx="0" cy="0" r="1" gradientUnits="userSpaceOnUse" gradientTransform="translate(20.5 18) rotate(9.86581) scale(11.6726)">
<stop stop-color="#FFA64B"/>
<stop offset="0.900412" stop-color="#FFAE46" stop-opacity="0"/>
</radialGradient>
<radialGradient id="paint7_radial_31_89" cx="0" cy="0" r="1" gradientUnits="userSpaceOnUse" gradientTransform="translate(17.5 15) rotate(43.9708) scale(59.0529)">
<stop offset="0.185425" stop-opacity="0"/>
<stop offset="1" stop-opacity="0.4"/>
</radialGradient>
<linearGradient id="paint8_linear_31_89" x1="11.2" y1="16.75" x2="10.9649" y2="18.1608" gradientUnits="userSpaceOnUse">
<stop stop-color="#52383E"/>
<stop offset="1" stop-color="#432A35"/>
</linearGradient>
<linearGradient id="paint9_linear_31_89" x1="23.2" y1="16.75" x2="22.9649" y2="18.1608" gradientUnits="userSpaceOnUse">
<stop stop-color="#52383E"/>
<stop offset="1" stop-color="#432A35"/>
</linearGradient>
<radialGradient id="paint10_radial_31_89" cx="0" cy="0" r="1" gradientUnits="userSpaceOnUse" gradientTransform="translate(16 26.8889) rotate(-90) scale(4.88889)">
<stop stop-color="#F70A8D"/>
<stop offset="1" stop-color="#89029C"/>
</radialGradient>
<radialGradient id="paint11_radial_31_89" cx="0" cy="0" r="1" gradientUnits="userSpaceOnUse" gradientTransform="translate(16.5 11.5) rotate(-21.8014) scale(8.07775 5.76555)">
<stop stop-color="#EFA031"/>
<stop offset="1" stop-color="#F0A83E" stop-opacity="0"/>
</radialGradient>
<linearGradient id="paint12_linear_31_89" x1="24" y1="8.49998" x2="28" y2="6.49998" gradientUnits="userSpaceOnUse">
<stop stop-color="#2C80E2"/>
<stop offset="1" stop-color="#00A6ED"/>
</linearGradient>
<radialGradient id="paint13_radial_31_89" cx="0" cy="0" r="1" gradientUnits="userSpaceOnUse" gradientTransform="translate(29 7.5) rotate(164.055) scale(3.64006 0.840972)">
<stop stop-color="#63BEFE"/>
<stop offset="1" stop-color="#63BEFE" stop-opacity="0"/>
</radialGradient>
<radialGradient id="paint14_radial_31_89" cx="0" cy="0" r="1" gradientUnits="userSpaceOnUse" gradientTransform="translate(28 2.5) rotate(45) scale(1.41421)">
<stop stop-color="#63BEFE"/>
<stop offset="1" stop-color="#4FB5FC" stop-opacity="0"/>
</radialGradient>
</defs>
</svg>

<svg width="100%" height="100%" viewBox="0 0 32 32" xmlns="http://www.w3.org/2000/svg"><path fill="url(#a)" d="M15.999 29.998c9.334 0 13.999-6.268 13.999-14 0-7.73-4.665-13.998-14-13.998C6.665 2 2 8.268 2 15.999s4.664 13.999 13.999 13.999"/><path fill="url(#b)" d="M15.999 29.998c9.334 0 13.999-6.268 13.999-14 0-7.73-4.665-13.998-14-13.998C6.665 2 2 8.268 2 15.999s4.664 13.999 13.999 13.999"/><path fill="url(#c)" d="M15.999 29.998c9.334 0 13.999-6.268 13.999-14 0-7.73-4.665-13.998-14-13.998C6.665 2 2 8.268 2 15.999s4.664 13.999 13.999 13.999"/><path fill="url(#d)" fill-opacity=".6" d="M15.999 29.998c9.334 0 13.999-6.268 13.999-14 0-7.73-4.665-13.998-14-13.998C6.665 2 2 8.268 2 15.999s4.664 13.999 13.999 13.999"/><path fill="url(#e)" d="M15.999 29.998c9.334 0 13.999-6.268 13.999-14 0-7.73-4.665-13.998-14-13.998C6.665 2 2 8.268 2 15.999s4.664 13.999 13.999 13.999"/><path fill="url(#f)" d="M15.999 29.998c9.334 0 13.999-6.268 13.999-14 0-7.73-4.665-13.998-14-13.998C6.665 2 2 8.268 2 15.999s4.664 13.999 13.999 13.999"/><path fill="url(#g)" d="M15.999 29.998c9.334 0 13.999-6.268 13.999-14 0-7.73-4.665-13.998-14-13.998C6.665 2 2 8.268 2 15.999s4.664 13.999 13.999 13.999"/><path fill="url(#h)" d="M15.999 29.998c9.334 0 13.999-6.268 13.999-14 0-7.73-4.665-13.998-14-13.998C6.665 2 2 8.268 2 15.999s4.664 13.999 13.999 13.999"/><path stroke="url(#i)" stroke-linecap="round" stroke-linejoin="round" stroke-width="2" d="M7 17s1 1 3 1 3-1 3-1"/><path stroke="url(#j)" stroke-linecap="round" stroke-linejoin="round" stroke-width="2" d="M19 17s1 1 3 1 3-1 3-1"/><rect width="4" height="4" x="14" y="22" fill="url(#k)" rx="2"/><rect width="20" height="20" x="8" fill="url(#l)" rx="10"/><path fill="url(#m)" fill-rule="evenodd" d="M28.78 2.374a1 1 0 0 1 .114 1.073l-2.027 4.056 1.89-.473a1 1 0 1 1 .485 1.94l-4 1a1 1 0 0 1-1.136-1.417l2.027-4.056-1.89.473a1 1 0 1 1-.485-1.94l4-1a1 1 0 0 1 1.022.344" clip-rule="evenodd"/><path fill="url(#n)" fill-rule="evenodd" d="M28.78 2.374a1 1 0 0 1 .114 1.073l-2.027 4.056 1.89-.473a1 1 0 1 1 .485 1.94l-4 1a1 1 0 0 1-1.136-1.417l2.027-4.056-1.89.473a1 1 0 1 1-.485-1.94l4-1a1 1 0 0 1 1.022.344" clip-rule="evenodd"/><path fill="url(#o)" fill-rule="evenodd" d="m26.077 2.45 1.68-.42a1 1 0 0 1 1.137 1.417l-.774 1.55L28 5a2 2 0 0 1-1.923-2.55" clip-rule="evenodd"/><path fill="#00A6ED" fill-rule="evenodd" d="M19 6.5a.5.5 0 0 1 .5-.5h3a.5.5 0 0 1 .4.8L20.5 10h2a.5.5 0 0 1 0 1h-3a.5.5 0 0 1-.4-.8L21.5 7h-2a.5.5 0 0 1-.5-.5M14.026 8.342a.5.5 0 0 1 .632-.316l3 1a.5.5 0 0 1 .09.908L15.22 11.38l1.94.647a.5.5 0 1 1-.317.948l-3-1a.5.5 0 0 1-.09-.908L16.28 9.62l-1.94-.647a.5.5 0 0 1-.315-.632" clip-rule="evenodd"/><defs><radialGradient id="a" cx="0" cy="0" r="1" gradientTransform="rotate(132.839 10.786 10.065)scale(37.5033)" gradientUnits="userSpaceOnUse"><stop stop-color="#FFF478"/><stop offset=".475" stop-color="#FFB02E"/><stop offset="1" stop-color="#F70A8D"/></radialGradient><radialGradient id="b" cx="0" cy="0" r="1" gradientTransform="rotate(131.878 10.74 10.193)scale(38.9487)" gradientUnits="userSpaceOnUse"><stop stop-color="#FFF478"/><stop offset=".475" stop-color="#FFB02E"/><stop offset="1" stop-color="#F70A8D"/></radialGradient><radialGradient id="c" cx="0" cy="0" r="1" gradientTransform="rotate(101.31 2.876 12.808)scale(17.8466 22.8581)" gradientUnits="userSpaceOnUse"><stop offset=".788" stop-color="#F59639" stop-opacity="0"/><stop offset=".973" stop-color="#FF7DCE"/></radialGradient><radialGradient id="d" cx="0" cy="0" r="1" gradientTransform="matrix(-29 29 -29 -29 18 14)" gradientUnits="userSpaceOnUse"><stop offset=".315" stop-opacity="0"/><stop offset="1"/></radialGradient><radialGradient id="e" cx="0" cy="0" r="1" gradientTransform="rotate(77.692 -2.555 18.434)scale(28.1469)" gradientUnits="userSpaceOnUse"><stop offset=".508" stop-color="#7D6133" stop-opacity="0"/><stop offset="1" stop-color="#715B32"/></radialGradient><radialGradient id="f" cx="0" cy="0" r="1" gradientTransform="rotate(55.713 -7.36 23.86)scale(13.3135 9.65032)" gradientUnits="userSpaceOnUse"><stop stop-color="#FFB849"/><stop offset="1" stop-color="#FFB847" stop-opacity="0"/></radialGradient><radialGradient id="g" cx="0" cy="0" r="1" gradientTransform="matrix(11.49998 2 -2 11.49998 20.5 18)" gradientUnits="userSpaceOnUse"><stop stop-color="#FFA64B"/><stop offset=".9" stop-color="#FFAE46" stop-opacity="0"/></radialGradient><radialGradient id="h" cx="0" cy="0" r="1" gradientTransform="rotate(43.971 -9.827 29.173)scale(59.0529)" gradientUnits="userSpaceOnUse"><stop offset=".185" stop-opacity="0"/><stop offset="1" stop-opacity=".4"/></radialGradient><radialGradient id="k" cx="0" cy="0" r="1" gradientTransform="rotate(-90 21.444 5.444)scale(4.88889)" gradientUnits="userSpaceOnUse"><stop stop-color="#F70A8D"/><stop offset="1" stop-color="#89029C"/></radialGradient><radialGradient id="l" cx="0" cy="0" r="1" gradientTransform="matrix(7.5 -3 2.14127 5.35318 16.5 11.5)" gradientUnits="userSpaceOnUse"><stop stop-color="#EFA031"/><stop offset="1" stop-color="#F0A83E" stop-opacity="0"/></radialGradient><radialGradient id="n" cx="0" cy="0" r="1" gradientTransform="matrix(-3.50001 .99998 -.23103 -.80862 29 7.5)" gradientUnits="userSpaceOnUse"><stop stop-color="#63BEFE"/><stop offset="1" stop-color="#63BEFE" stop-opacity="0"/></radialGradient><radialGradient id="o" cx="0" cy="0" r="1" gradientTransform="matrix(1 1 -1 1 28 2.5)" gradientUnits="userSpaceOnUse"><stop stop-color="#63BEFE"/><stop offset="1" stop-color="#4FB5FC" stop-opacity="0"/></radialGradient><linearGradient id="i" x1="11.2" x2="10.965" y1="16.75" y2="18.161" gradientUnits="userSpaceOnUse"><stop stop-color="#52383E"/><stop offset="1" stop-color="#432A35"/></linearGradient><linearGradient id="j" x1="23.2" x2="22.965" y1="16.75" y2="18.161" gradientUnits="userSpaceOnUse"><stop stop-color="#52383E"/><stop offset="1" stop-color="#432A35"/></linearGradient><linearGradient id="m" x1="24" x2="28" y1="8.5" y2="6.5" gradientUnits="userSpaceOnUse"><stop stop-color="#2C80E2"/><stop offset="1" stop-color="#00A6ED"/></linearGradient></defs></svg>
